X:15
T: Whelan's Frolic
C: BB
Q: 1/8=320
M: 6/8
L: 1/8
K: Ador
"Am"e2 e "G"dcB | "C"c2 c "G"BAG | "Am"EAc "D"^FAd | "C"cBc "G"BAG |
"Em"eag edB | "Am"cBA "G"GED | "C"EDC "G"DED | "Am7"CA,G, "Am"A,3 :|
[M:9/8] "A"^c2 d eaa "A"eaa | "A"^c2 d "G"egd BAG | "A"AEE ^cEE "G"d3 |
"Em"eag edB "A"A3 | "A"aea "G"b2 a g^fe | "A"^cde "G"g^fg dBG |
"A"AEE ^cEE "G"d3 |"Em"eag edB "A"A3 :|
